assets/svg/icon-ui-refresh-blue.svg

<?xml version="1.0" encoding="UTF-8" standalone="no"?>
<svg width="37px" height="31px" viewBox="0 0 37 31" version="1.1" xmlns="http://www.w3.org/2000/svg" xmlns:xlink="http://www.w3.org/1999/xlink">
    <!-- Generator: Sketch 3.8.3 (29802) - http://www.bohemiancoding.com/sketch -->
    <title>blue/icon-ui-refresh-blue</title>
    <desc>Created with Sketch.</desc>
    <defs></defs>
    <g id="blue,-base" stroke="none" stroke-width="1" fill="none" fill-rule="evenodd">
        <g id="icons,-utility-(blue)" transform="translate(-934.000000, -236.000000)" fill="#1055FF">
            <g id="blue/icon-ui-refresh-blue" transform="translate(934.000000, 236.000000)">
                <g id="0">
                    <g id="PaaS">
                        <g id="products">
                            <g id="Products">
                                <g id="PaaS">
                                    <g id="Features">
                                        <g id="PaaS-List">
                                            <g id="Backup">
                                                <path d="M26.8751422,21.91276 C25.0083872,24.6420722 21.9112708,26.4029189 18.4747445,26.4029189 C12.7472005,26.4029189 8.12273915,21.6486331 8.12273915,15.7497971 L9.31067417,15.7497971 L11.474413,15.7497971 L6.08627909,10.2031304 L0.740571429,15.7497971 L3.58313026,15.7497971 L3.66798277,15.7497971 L4.13467152,15.7497971 C4.17709778,23.9377335 10.5410355,30.5409081 18.4747445,30.5409081 C23.0143534,30.5409081 27.0872734,28.3398501 29.717701,24.8621781 L28.5297659,23.6736066 L26.8751422,21.91276 L26.8751422,21.91276 Z M33.9603262,15.7497971 L32.7723911,15.7497971 L32.7723911,15.6617547 C32.7723911,7.47381824 26.3660272,0.826622469 18.4747445,0.826622469 C13.8502831,0.826622469 9.73493669,3.07170183 7.14693536,6.59339495 L8.3348704,7.82598754 L9.98949419,9.54281296 C11.8562493,6.76947961 14.9533656,4.92059072 18.4747445,4.92059072 C24.1598622,4.92059072 28.8267497,9.76291877 28.8267497,15.6617547 L28.8267497,15.7497971 L27.5539623,15.7497971 L25.4326496,15.7497971 L30.7783573,21.2964638 L36.1664912,15.7497971 L33.9603262,15.7497971 L33.9603262,15.7497971 Z" id="0"></path>
                                            </g>
                                        </g>
                                    </g>
                                </g>
                            </g>
                        </g>
                    </g>
                </g>
            </g>
        </g>
    </g>
</svg>

<svg width="37" height="31" viewBox="0 0 37 31" xmlns="http://www.w3.org/2000/svg"><title>blue/icon-ui-refresh-blue</title><path d="M26.875 21.913c-1.867 2.73-4.964 4.49-8.4 4.49-5.728 0-10.352-4.754-10.352-10.653h3.351l-5.388-5.547L.741 15.75h3.394c.042 8.188 6.406 14.79 14.34 14.79 4.54 0 8.612-2.2 11.243-5.678l-1.188-1.188-1.655-1.761zm7.085-6.163h-1.188v-.088c0-8.188-6.406-14.835-14.297-14.835-4.625 0-8.74 2.245-11.328 5.766l1.188 1.233 1.654 1.717c1.867-2.774 4.964-4.622 8.486-4.622 5.685 0 10.352 4.842 10.352 10.74v.089h-3.394l5.345 5.546 5.388-5.546H33.96z" fill="#1055FF" fill-rule="evenodd"/></svg>
